coreui/free/cil-envelope-open.svg

<svg xmlns="http://www.w3.org/2000/svg" viewBox="0 0 512 512">
  <path fill="var(--ci-primary-color, currentColor)" d="M274.6,25.623a32.006,32.006,0,0,0-37.2,0L16,183.766V496H496V183.766ZM464,402.693,339.97,322.96,464,226.492ZM256,51.662,454.429,193.4,311.434,304.615,256,268.979l-55.434,35.636L57.571,193.4ZM48,226.492,172.03,322.96,48,402.693ZM464,464H48V440.735L256,307.021,464,440.735Z" class="ci-primary"/>
</svg>

<svg viewBox="0 0 512 512" xmlns="http://www.w3.org/2000/svg"><path d="M274.6 25.62v0c-11.13-7.95-26.08-7.95-37.2-.001L16 183.762v312.234h480V183.762ZM464 402.69l-124.03-79.74L464 226.48ZM256 51.65L454.42 193.38 311.42 304.59l-55.44-35.64 -55.434 35.63L57.55 193.36ZM48 226.48l124.03 96.46L48 402.67Zm416 237.5H48v-23.27l208-133.72L464 440.7Z"/></svg>
